resources/haticons/SVG/table.svg

<!-- Generated by IcoMoon.io -->
<svg version="1.1" xmlns="http://www.w3.org/2000/svg" width="24" height="24" viewBox="0 0 24 24">
<title>table</title>
<path d="M0 4.5v16.5h24v-16.5h-24zM9 15v-3h6v3h-6zM15 16.5v3h-6v-3h6zM15 7.5v3h-6v-3h6zM7.5 7.5v3h-6v-3h6zM1.5 12h6v3h-6v-3zM16.5 12h6v3h-6v-3zM16.5 10.5v-3h6v3h-6zM1.5 16.5h6v3h-6v-3zM16.5 19.5v-3h6v3h-6z"></path>
</svg>

<svg xmlns="http://www.w3.org/2000/svg" width="24" height="24"><path d="M0 4.5V21h24V4.5H0zM9 15v-3h6v3H9zm6 1.5v3H9v-3h6zm0-9v3H9v-3h6zm-7.5 0v3h-6v-3h6zm-6 4.5h6v3h-6v-3zm15 0h6v3h-6v-3zm0-1.5v-3h6v3h-6zm-15 6h6v3h-6v-3zm15 3v-3h6v3h-6z"/></svg>
